apps/frontend/src/assets/logos/modrinth.svg

<svg xmlns="http://www.w3.org/2000/svg" viewBox="0 0 512 514">
    <path fill-rule="evenodd" clip-rule="evenodd"
        d="M503.16 323.56c11.39-42.09 12.16-87.65.04-132.8C466.57 54.2299 326.04-26.8001 189.33 9.77991 83.8101 38.0199 11.3899 128.07.689941 230.47H43.99c10.3-83.14 69.75-155.7402 155.76-178.7602 106.3-28.45 215.38 28.9601 253.42 129.6702l-42.14 11.27c-19.39-46.85-58.46-81.2-104.73-95.8302l-7.74 43.8402c36.53 13.47 66.16 43.84 77 84.25 15.8 58.89-13.62 119.23-67 144.26l11.53 42.99c70.16-28.95 112.31-101.86 102.34-177.02l41.98-11.23c4.5 28.71 2.94 57.25-3.86 84.16l42.61 15.49Z"
        fill="currentColor" />
    <path
        d="M321.99 504.22C185.27 540.8 44.7501 459.77 8.11011 323.24 3.84011 307.31 1.17 291.33 0 275.46h43.27c1.09 11.91 3.1999 23.89 6.4099 35.83 3.36 12.51 7.7701 24.46 13.1101 35.78l38.59-23.15c-3.2501-7.5-5.99-15.32-8.17-23.45-24.04-89.6 29.2-181.7 118.92-205.7099 17-4.55 34.1-6.32 50.8-5.61L255.19 133c-10.46.05-21.08 1.42-31.66 4.25-66.22 17.73-105.52 85.7-87.78 151.84 1.1 4.07 2.38 8.04 3.84 11.9l49.35-29.61-14.87-39.43 46.6-47.87 58.9-12.69 17.05 20.99-27.15 27.5-23.68 7.45-16.92 17.39 8.29 23.07s16.79 17.84 16.82 17.85l23.72-6.31 16.88-18.54 36.86-11.67 10.98 24.7-38.03 46.63-63.73 20.18-28.58-31.82-49.82 29.89c25.54 29.08 63.94 45.23 103.75 41.86l11.53 42.99c-59.41 7.86-117.44-16.73-153.49-61.91l-38.4101 23.04C136.25 451.17 223.84 484.11 309.61 461.16c61.74-16.52 109.79-58.6 135.81-111.78l42.64 15.5c-30.89 66.28-89.84 118.94-166.07 139.34Z"
        fill="currentColor" />
</svg>

<svg width="64" height="64" viewBox="0 0 512 514" xmlns="http://www.w3.org/2000/svg">
  <path fill-rule="evenodd" clip-rule="evenodd" d="M503.16 323.56C514.55 281.47 515.32 235.91 503.2 190.76C466.57 54.2299 326.04 -26.8001 189.33 9.77991C83.8101 38.0199 11.3899 128.07 0.689941 230.47H43.99C54.29 147.33 113.74 74.7298 199.75 51.7098C306.05 23.2598 415.13 80.6699 453.17 181.38L411.03 192.65C391.64 145.8 352.57 111.45 306.3 96.8198L298.56 140.66C335.09 154.13 364.72 184.5 375.56 224.91C391.36 283.8 361.94 344.14 308.56 369.17L320.09 412.16C390.25 383.21 432.4 310.3 422.43 235.14L464.41 223.91C468.91 252.62 467.35 281.16 460.55 308.07L503.16 323.56Z" fill="#00af5c"/>
  <path d="M321.99 504.22C185.27 540.8 44.7501 459.77 8.11011 323.24C3.84011 307.31 1.17 291.33 0 275.46H43.27C44.36 287.37 46.4699 299.35 49.6799 311.29C53.0399 323.8 57.45 335.75 62.79 347.07L101.38 323.92C98.1299 316.42 95.39 308.6 93.21 300.47C69.17 210.87 122.41 118.77 212.13 94.7601C229.13 90.2101 246.23 88.4401 262.93 89.1501L255.19 133C244.73 133.05 234.11 134.42 223.53 137.25C157.31 154.98 118.01 222.95 135.75 289.09C136.85 293.16 138.13 297.13 139.59 300.99L188.94 271.38L174.07 231.95L220.67 184.08L279.57 171.39L296.62 192.38L269.47 219.88L245.79 227.33L228.87 244.72L237.16 267.79C237.16 267.79 253.95 285.63 253.98 285.64L277.7 279.33L294.58 260.79L331.44 249.12L342.42 273.82L304.39 320.45L240.66 340.63L212.08 308.81L162.26 338.7C187.8 367.78 226.2 383.93 266.01 380.56L277.54 423.55C218.13 431.41 160.1 406.82 124.05 361.64L85.6399 384.68C136.25 451.17 223.84 484.11 309.61 461.16C371.35 444.64 419.4 402.56 445.42 349.38L488.06 364.88C457.17 431.16 398.22 483.82 321.99 504.22Z" fill="#00af5c"/>
</svg>
